X: 195
T:The Road to Ballymac
M:2/2
L:1/8
R:Reel
Z:Robert Greenway, 17/2/1999
K:G
DG~G2 BAGA|Bd^cd e2de|gd~d2 egdg|gedB ABGE|!
DG~G2 BAGA|Bd^cd e2de|gd~d2 egdB|1 cAFA G3E:|2 cAFA G3A|!
|:Bd~d2 edBd|eg~g2 a2ga|bgag egdg|gedB ABGA|!
Bd~d2 edBd|eg~g2 a2ga|bgag egdB|1 cAFA G3A:|2 cAFA G3E||!
<end>
<start>
